( File created with mid2cnc.py - http://tim.cexx.org/?p=633 )
( Input file was /Users/Dan/Documents/Code/mid2cnc/Main Theme (GoT).mid )
( Steps per inch: 2000 )
( Machine envelope: )
( x = 12 )
( y = 6 )
( z = 1 )
G20
G00 X0 Y0 Z0
G01 X0.1959977180 Y0.0081757989 Z0.0000000000 F47.0803597138
G01 X0.3919954360 Y0.0204256563 Z0.0000000000 F47.1312367023
G01 X0.5879931540 Y0.0367772541 Z0.0000000000 F47.2028691930
G01 X0.7839908720 Y0.0551313021 Z0.0000000000 F47.2452521259
G01 X0.9799885900 Y0.0745767386 Z0.0000000000 F47.2703932114
G01 X1.1759863079 Y0.0990764533 Z0.0000000000 F47.4055236156
G01 X1.3067990906 Y0.1317796490 Z0.0000000000 F32.3612952029
G01 X1.4376118732 Y0.1684877450 Z0.0000000000 F32.6077503173
G01 X1.5684246559 Y0.2073786180 Z0.0000000000 F32.7531721278
G01 X1.6992374385 Y0.2563780475 Z0.0000000000 F33.5252839523
G01 X1.8300502212 Y0.3217844388 Z0.0000000000 F35.1007529198
G01 X1.9608630038 Y0.3952006308 Z0.0000000000 F36.0015370468
G01 X2.1164264957 Y0.4729823767 Z0.0000000000 F41.7420651142
G01 X2.2910406114 Y0.5463985687 Z0.0000000000 F45.4608571759
G01 X2.4870383294 Y0.6118049600 Z0.0000000000 F49.5895416945
G01 X2.6830360474 Y0.6608043895 Z0.0000000000 F48.4871576194
G01 X2.8790337654 Y0.6996952625 Z0.0000000000 F47.9565436031
G01 X3.0750314834 Y0.7364033585 Z0.0000000000 F47.8573418681
G01 X3.2058442660 Y0.7691065541 Z0.0000000000 F32.3612952029
G01 X3.3366570487 Y0.7936062689 Z0.0000000000 F31.9409436201
G01 X3.4674698313 Y0.8130517053 Z0.0000000000 F31.7400422878
G01 X3.5982826140 Y0.8314057533 Z0.0000000000 F31.7025875681
G01 X3.7538461059 Y0.8477573512 Z0.0000000000 F37.5409214817
G01 X3.8666177223 Y0.8583177581 Z0.0000000000 F42.0907345572
G01 X3.9284602216 Y0.9103208941 Z0.0057911909 F54.8950951976
G01 X4.0752926055 Y0.9225707515 Z0.0057911909 F35.3621964804
G01 X4.2221249895 Y0.9409247995 Z0.0057911909 F35.5140157582
G01 X4.3689573734 Y0.9654245142 Z0.0057911909 F35.7269525163
G01 X4.5157897574 Y0.9913810578 Z0.0057911909 F35.7861577897
G01 X4.6626221414 Y1.0205162929 Z0.0057911909 F35.9268143316
G01 X4.8094545253 Y1.0572243889 Z0.0057911909 F36.3243256994
G01 X4.9562869093 Y1.1062238184 Z0.0057911909 F37.1501806299
G01 X5.1031192932 Y1.1612238184 Z0.0057911909 F37.6308588952
G01 X5.2499516772 Y1.2194942886 Z0.0057911909 F37.9133133409
G01 X5.3967840612 Y1.2929104806 Z0.0057911909 F39.3992630196
G01 X5.5436164451 Y1.3909093396 Z0.0057911909 F42.3676652623
G01 X5.6904488291 Y1.5009093396 Z0.0057911909 F44.0318241865
G01 X5.8372812130 Y1.6174502799 Z0.0057911909 F44.9905844636
G01 X5.9841135970 Y1.7212764543 Z0.0057911909 F43.1597302098
G01 X6.1309459809 Y1.8192753133 Z0.0057911909 F42.3676652623
G01 X6.2777783649 Y1.8926915053 Z0.0057911909 F39.3992630196
G01 X6.3360488351 Y1.8926915053 Z0.0057911909 F13.9849128455
G01 X6.3910488351 Y1.8926915053 Z0.0057911909 F13.2000000000
G01 X6.5378812191 Y1.9416909348 Z0.0057911909 F37.1501806299
G01 X6.6847136030 Y1.9783990308 Z0.0057911909 F36.3243256994
G01 X6.8315459870 Y2.0075342659 Z0.0057911909 F35.9268143316
G01 X6.9783783709 Y2.0350342659 Z0.0057911909 F35.8524970008
G01 X7.1252107549 Y2.0595339806 Z0.0057911909 F35.7269525163
G01 X7.2720431388 Y2.0778880286 Z0.0057911909 F35.5140157582
G01 X7.4466572546 Y2.0924556462 Z0.0057911909 F42.0529756566
G01 X7.6212713703 Y2.1142824106 Z0.0057911909 F42.2335202219
G01 X7.7958854860 Y2.1434176457 Z0.0057911909 F42.4867461297
G01 X7.9704996017 Y2.1761208414 Z0.0057911909 F42.6360445239
G01 X8.1451137174 Y2.1979476059 Z0.0057911909 F42.2335202219
G01 X8.3197278331 Y2.2270828410 Z0.0057911909 F42.4867461297
G01 X8.4362687735 Y2.2637909370 Z0.0057911909 F29.3244990667
G01 X8.5528097139 Y2.2856177014 Z0.0057911909 F28.4561457274
G01 X8.6693506543 Y2.3147529365 Z0.0057911909 F28.8306364136
G01 X8.7858915947 Y2.3536438095 Z0.0057911909 F29.4861179064
G01 X8.9024325350 Y2.3754705739 Z0.0057911909 F28.4561457274
G01 X9.0189734754 Y2.4046058090 Z0.0057911909 F28.8306364136
G01 X9.1745369673 Y2.4482593380 Z0.0057911909 F38.7773686816
G01 X9.3213693512 Y2.4700861024 Z0.0057911909 F35.6269928798
G01 X9.4959834670 Y2.4992213375 Z0.0057911909 F42.4867461297
G01 X9.6705975827 Y2.5381122105 Z0.0057911909 F42.9342421602
G01 X9.8452116984 Y2.5599389750 Z0.0057911909 F42.2335202219
G01 X10.0198258141 Y2.5890742100 Z0.0057911909 F42.4867461297
G01 X10.1363667545 Y2.6257823060 Z0.0057911909 F29.3244990667
G01 X10.2529076949 Y2.6476090705 Z0.0057911909 F28.4561457274
G01 X10.3694486352 Y2.6767443056 Z0.0057911909 F28.8306364136
G01 X10.4859895756 Y2.7094475013 Z0.0057911909 F29.0502029591
G01 X10.6025305160 Y2.7312742657 Z0.0057911909 F28.4561457274
G01 X10.7190714564 Y2.7604095008 Z0.0057911909 F28.8306364136
G01 X10.8746349482 Y2.7713228831 Z0.0057911909 F37.4269992134
G01 X11.0214673322 Y2.7876744809 Z0.0057911909 F35.4576131019
G01 X11.1522801149 Y2.8095012453 Z0.0057911909 F31.8290961998
G01 X11.2830928975 Y2.8340009601 Z0.0057911909 F31.9409436201
G01 X11.4139056802 Y2.8599575037 Z0.0057911909 F32.0071528349
G01 X11.5447184628 Y2.8926606994 Z0.0057911909 F32.3612952029
G01 X11.5883719917 Y2.8926606994 Z0.0057911909 F10.4768469430
G01 X11.6373714212 Y2.8926606994 Z0.0057911909 F11.7598630795
G01 X11.6892845084 Y2.8926606994 Z0.0057911909 F12.4591409274
G01 X11.7546908998 Y2.8926606994 Z0.0057911909 F15.6975339180
G01 X11.8419979576 Y2.8926606994 Z0.0057911909 F20.9536938860
G01 X11.7439990986 Y2.8926606994 Z0.0057911909 F23.5197261589
G01 X11.5363467498 Y2.8926606994 Z0.0057911909 F24.9182818548
G01 X11.3286944010 Y2.8926606994 Z0.0057911909 F24.9182818548
G01 X10.9133897035 Y2.8926606994 Z0.0057911909 F49.8365637096
G01 X10.5213942675 Y2.9906595584 Z0.0057911909 F48.4871576194
G01 X10.3432609248 Y2.9906595584 Z0.0057911909 F11.7598630795
G01 X10.2718034235 Y3.0085239337 Z0.0057911909 F48.4871576194
G01 X10.0758057055 Y3.0166997326 Z0.0057911909 F47.0803597138
G01 X9.8798079875 Y3.0289495900 Z0.0057911909 F47.1312367023
G01 X9.6838102695 Y3.0453011878 Z0.0057911909 F47.2028691930
G01 X9.4878125515 Y3.0636552358 Z0.0057911909 F47.2452521259
G01 X9.2918148335 Y3.0831006723 Z0.0057911909 F47.2703932114
G01 X9.0958171155 Y3.1076003870 Z0.0057911909 F47.4055236156
G01 X8.9650043329 Y3.1403035827 Z0.0057911909 F32.3612952029
G01 X8.8341915502 Y3.1770116787 Z0.0057911909 F32.6077503173
G01 X8.7033787676 Y3.2159025517 Z0.0057911909 F32.7531721278
G01 X8.5725659849 Y3.2649019812 Z0.0057911909 F33.5252839523
G01 X8.4417532023 Y3.3303083725 Z0.0057911909 F35.1007529198
G01 X8.3109404196 Y3.4037245645 Z0.0057911909 F36.0015370468
G01 X8.1553769278 Y3.4815063104 Z0.0057911909 F41.7420651142
G01 X7.9807628121 Y3.5549225024 Z0.0057911909 F45.4608571759
G01 X7.7847650941 Y3.6203288937 Z0.0057911909 F49.5895416945
G01 X7.5887673761 Y3.6693283232 Z0.0057911909 F48.4871576194
G01 X7.3927696581 Y3.7082191962 Z0.0057911909 F47.9565436031
G01 X7.1967719401 Y3.7449272921 Z0.0057911909 F47.8573418681
G01 X7.0659591574 Y3.7776304878 Z0.0057911909 F32.3612952029
G01 X6.9351463748 Y3.8021302026 Z0.0057911909 F31.9409436201
G01 X6.8043335921 Y3.8215756390 Z0.0057911909 F31.7400422878
G01 X6.6735208095 Y3.8399296870 Z0.0057911909 F31.7025875681
G01 X6.6001046175 Y3.8481054860 Z0.0057911909 F35.4576131019
G01 X6.5223228716 Y3.8562812849 Z0.0057911909 F37.5409214817
G01 X6.4350158137 Y3.8644570838 Z0.0057911909 F42.0907345572
G01 X6.3370169547 Y3.8726328827 Z0.0057911909 F47.2028691930
G01 X6.1901845708 Y3.8848827401 Z0.0057911909 F35.3621964804
G01 X6.0433521868 Y3.9032367881 Z0.0057911909 F35.5140157582
G01 X5.8965198028 Y3.9277365028 Z0.0057911909 F35.7269525163
G01 X5.7496874189 Y3.9552365028 Z0.0057911909 F35.8524970008
G01 X5.6028550349 Y3.9843717379 Z0.0057911909 F35.9268143316
G01 X5.4560226510 Y4.0210798339 Z0.0057911909 F36.3243256994
G01 X5.3091902670 Y4.0700792634 Z0.0057911909 F37.1501806299
G01 X5.1623578831 Y4.1250792634 Z0.0057911909 F37.6308588952
G01 X5.0155254991 Y4.1833497336 Z0.0057911909 F37.9133133409
G01 X4.8686931151 Y4.2567659256 Z0.0057911909 F39.3992630196
G01 X4.7218607312 Y4.3547647846 Z0.0057911909 F42.3676652623
G01 X4.5750283472 Y4.4647647846 Z0.0057911909 F44.0318241865
G01 X3.9876988114 Y4.9309285461 Z0.0057911909 F44.9905844636
G01 X3.6940340435 Y5.1509285461 Z0.0057911909 F44.0318241865
G01 X3.2278702819 Y5.3469262641 Z0.0057911909 F60.6829639631
G01 X2.7617065204 Y5.5215403798 Z0.0057911909 F59.7352649967
G01 X2.2955427589 Y5.6961544955 Z0.0057911909 F59.7352649967
G01 X1.9463145275 Y5.8126954359 Z0.0057911909 F44.1792591288
G01 X1.7717004118 Y5.7392792439 Z0.0057911909 F45.4608571759
G01 X1.5970862960 Y5.6614974980 Z0.0057911909 F45.8771092144
G01 X1.2478580646 Y5.4868833823 Z0.0057911909 F46.8538839088
G01 X1.0147761839 Y5.3703424419 Z0.0057911909 F31.2712157820
G01 X0.8982352435 Y5.2969262499 Z0.0057911909 F33.0570950703
G01 X0.7816943031 Y5.2191445040 Z0.0057911909 F33.6272382034
G01 X0.5486124223 Y5.0445303883 Z0.0057911909 F34.9480820169
G01 X0.3930489305 Y4.9862599181 Z0.0057911909 F39.8685062085
G01 X0.2462165465 Y4.9279894479 Z0.0057911909 F37.9133133409
G01 X0.0716024308 Y4.8545732559 Z0.0057911909 F45.4608571759
G01 X0.2462165465 Y4.7767915100 Z0.0057911909 F45.8771092144
G01 X0.5954447779 Y4.6021773942 Z0.0057911909 F46.8538839088
G01 X0.8285266587 Y4.4856364539 Z0.0057911909 F31.2712157820
G01 X0.9450675991 Y4.4122202619 Z0.0057911909 F33.0570950703
G01 X1.0616085395 Y4.3344385160 Z0.0057911909 F33.6272382034
G01 X1.2946904202 Y4.1598244002 Z0.0057911909 F34.9480820169
G01 X1.4502539121 Y4.1598244002 Z0.0057911909 F37.3352380466
G01 X1.5970862960 Y4.1598244002 Z0.0057911909 F35.2397721501
G01 X1.7278990787 Y4.1598244002 Z0.0057911909 F31.3950678361
G01 X1.8258979377 Y4.1598244002 Z0.0057911909 F23.5197261589
G01 X1.9036796836 Y4.1598244002 Z0.0057911909 F18.6676190233
G01 X1.9770958756 Y4.1598244002 Z0.0057911909 F17.6198860750
G01 X2.0425022669 Y4.1598244002 Z0.0057911909 F15.6975339180
G01 X2.0915016964 Y4.1598244002 Z0.0057911909 F11.7598630795
G01 X2.1303925694 Y4.1598244002 Z0.0057911909 F9.3338095117
G01 X2.1671006654 Y4.1598244002 Z0.0057911909 F8.8099430375
G01 X2.1998038610 Y4.1598244002 Z0.0057911909 F7.8487669590
G01 X2.2243035758 Y4.1598244002 Z0.0057911909 F5.8799315397
G01 X2.2437490123 Y4.1598244002 Z0.0057911909 F4.6669047558
G01 X2.2682487270 Y4.1506473762 Z0.0057911909 F12.5577925500
G01 X2.2942052706 Y4.1414703522 Z0.0057911909 F13.2149145563
G01 X2.3233405057 Y4.1332945533 Z0.0057911909 F14.5251014796
G01 X2.3560437014 Y4.1251187544 Z0.0057911909 F16.1806476014
G01 X2.3927517974 Y4.1189938257 Z0.0057911909 F17.8634762582
G01 X2.4316426703 Y4.1128688970 Z0.0057911909 F18.8977088222
G01 X2.4752961993 Y4.1080075379 Z0.0057911909 F21.0832228909
G01 X2.5242956288 Y4.1031461788 Z0.0057911909 F23.6351966057
G01 X2.5762087160 Y4.0990582793 Z0.0057911909 F24.9954189206
G01 X2.6344791861 Y4.0949703799 Z0.0057911909 F28.0385688938
G01 X2.7652919688 Y4.0819921081 Z0.0057911909 F31.5492023904
G01 X2.8961047514 Y4.0625466716 Z0.0057911909 F31.7400422878
G01 X3.0269175341 Y4.0365901280 Z0.0057911909 F32.0071528349
G01 X3.1577303167 Y4.0038869323 Z0.0057911909 F32.3612952029
G01 X3.1966211897 Y4.0038869323 Z0.0057911909 F9.3338095117
G01 X3.2485342769 Y4.0038869323 Z0.0057911909 F12.4591409274
G01 X3.3263160228 Y4.0038869323 Z0.0057911909 F18.6676190233
G01 X3.3917224142 Y4.0038869323 Z0.0057911909 F15.6975339180
G01 X3.4436355014 Y4.0038869323 Z0.0057911909 F12.4591409274
G01 X3.4825263743 Y4.0038869323 Z0.0057911909 F9.3338095117
G01 X3.5479327657 Y4.0038869323 Z0.0057911909 F7.8487669590
G01 X3.6644737060 Y3.9941642141 Z0.0057911909 F28.0669939464
G01 X3.7810146464 Y3.9795965966 Z0.0057911909 F28.1874929871
G01 X3.8975555868 Y3.9601511601 Z0.0057911909 F28.3565010040
G01 X4.0140965272 Y3.9356514453 Z0.0057911909 F28.5811956381
G01 X4.0432317623 Y3.9356514453 Z0.0057911909 F6.9924564228
G01 X4.0821226352 Y3.9356514453 Z0.0057911909 F9.3338095117
G01 X4.1403931054 Y3.9356514453 Z0.0057911909 F13.9849128455
G01 X4.1893925349 Y3.9356514453 Z0.0057911909 F11.7598630795
G01 X4.2282834079 Y3.9356514453 Z0.0057911909 F9.3338095117
G01 X4.2574186430 Y3.9356514453 Z0.0057911909 F6.9924564228
G01 X4.3064180725 Y3.9356514453 Z0.0057911909 F5.8799315397
G01 X4.3718244638 Y3.9247380631 Z0.0057911909 F15.9145480999
G01 X4.4372308551 Y3.9083864653 Z0.0057911909 F16.1806476014
G01 X4.5026372465 Y3.8865597008 Z0.0057911909 F16.5485241510
G01 X4.5680436378 Y3.8606031572 Z0.0057911909 F16.8884611279
G01 X4.6334500291 Y3.8278999615 Z0.0057911909 F17.5503764599
G01 X4.6988564204 Y3.7842464326 Z0.0057911909 F18.8726493364
G01 X4.7507695076 Y3.7842464326 Z0.0057911909 F12.4591409274
G01 X4.7944230366 Y3.7842464326 Z0.0057911909 F10.4768469430
G01 X4.8271262322 Y3.7842464326 Z0.0057911909 F7.8487669590
G01 X4.8530827758 Y3.7842464326 Z0.0057911909 F6.2295704637
G01 X4.8967363047 Y3.7842464326 Z0.0057911909 F5.2384234715
G01 X4.9947351637 Y3.7760706337 Z0.0057911909 F23.6014345965
G01 X5.0927340227 Y3.7638207763 Z0.0057911909 F23.7027618078
G01 X5.1907328817 Y3.7474691785 Z0.0057911909 F23.8448800434
G01 X5.2887317407 Y3.7280237420 Z0.0057911909 F23.9782718016
G01 X5.3132314555 Y3.7280237420 Z0.0057911909 F5.8799315397
G01 X5.3459346511 Y3.7280237420 Z0.0057911909 F7.8487669590
G01 X5.3848255241 Y3.7280237420 Z0.0057911909 F9.3338095117
G01 X5.4175287198 Y3.7280237420 Z0.0057911909 F7.8487669590
G01 X5.4420284345 Y3.7280237420 Z0.0057911909 F5.8799315397
G01 X5.4614738710 Y3.7280237420 Z0.0057911909 F4.6669047558
G01 X5.5104733005 Y3.7280237420 Z0.0057911909 F5.8799315397
G01 X5.5364298441 Y3.7150454702 Z0.0057911909 F6.9648715137
G01 X5.5623863877 Y3.6956000337 Z0.0057911909 F7.7838003676
G01 X5.5883429313 Y3.6956000337 Z0.0057911909 F6.2295704637
G01 X5.6272338043 Y3.6956000337 Z0.0057911909 F9.3338095117
G01 X5.6791468915 Y3.6956000337 Z0.0057911909 F12.4591409274
G01 X5.7569286374 Y3.6956000337 Z0.0057911909 F18.6676190233
G01 X5.8088417246 Y3.6956000337 Z0.0057911909 F12.4591409274
G01 X5.8866234705 Y3.6956000337 Z0.0057911909 F18.6676190233
G01 X6.0942758193 Y3.6956000337 Z0.0057911909 F24.9182818548
G01 X6.3019281681 Y3.6696434901 Z0.0057911909 F25.1122013698
G01 X6.4574916600 Y3.5918617442 Z0.0167045731 F41.8241589290
G01 X6.6130551518 Y3.5140799983 Z0.0330561710 F41.9261348766
G01 X6.7686186437 Y3.4362982523 Z0.0548829354 F42.0694792037
G01 X6.9241821355 Y3.3585165064 Z0.0808394790 F42.2043546114
G01 X7.2353091193 Y3.2029530145 Z0.1462458704 F42.4735581601
G01 X7.4099232350 Y3.1156459567 Z0.1584957277 F46.9460311002
G01 X7.5845373507 Y3.0283388988 Z0.1768497757 F47.0604952313
G01 X7.7591514664 Y2.9410318410 Z0.2013494905 F47.2213937982
G01 X7.9337655821 Y2.8537247831 Z0.2304847256 F47.3727863247
G01 X8.2829938136 Y2.6791106674 Z0.3039009175 F47.6749570913
G01 X8.4789915315 Y2.5811118084 Z0.3120767165 F52.6282983705
G01 X8.6749892495 Y2.4831129494 Z0.3243265738 F52.6738169462
G01 X8.8709869675 Y2.3851140904 Z0.3406781717 F52.7379216375
G01 X9.0669846855 Y2.2871152314 Z0.3590322197 F52.7758596996
G01 X9.2629824035 Y2.1891163724 Z0.3784776561 F52.7983673322
G01 X9.4589801215 Y2.0911175134 Z0.4029773709 F52.9193838575
G01 X9.4916833172 Y2.0911175134 Z0.4029773709 F7.8487669590
G01 X9.5283914132 Y2.0911175134 Z0.4029773709 F8.8099430375
G01 X9.5672822861 Y2.0911175134 Z0.4029773709 F9.3338095117
G01 X9.6162817156 Y2.0911175134 Z0.4029773709 F11.7598630795
G01 X9.6816881069 Y2.0911175134 Z0.4029773709 F15.6975339180
G01 X9.7551042989 Y2.0911175134 Z0.4029773709 F17.6198860750
G01 X9.8328860449 Y2.0911175134 Z0.4029773709 F18.6676190233
G01 X9.9063022368 Y2.0911175134 Z0.4029773709 F17.6198860750
G01 X9.9717086282 Y2.0911175134 Z0.4029773709 F15.6975339180
G01 X10.0207080577 Y2.0911175134 Z0.4029773709 F11.7598630795
G01 X10.0595989306 Y2.0911175134 Z0.4029773709 F9.3338095117
G01 X10.0963070266 Y2.0911175134 Z0.4029773709 F8.8099430375
G01 X10.1290102223 Y2.0911175134 Z0.4029773709 F7.8487669590
G01 X10.1535099370 Y2.0911175134 Z0.4029773709 F5.8799315397
G01 X10.1729553735 Y2.0911175134 Z0.4029773709 F4.6669047558
G01 X10.1913094215 Y2.0911175134 Z0.4029773709 F4.4049715188
G01 X10.2240126172 Y2.0911175134 Z0.4029773709 F3.9243834795
G01 X10.3548253998 Y2.0781392416 Z0.4029773709 F31.5492023904
G01 X10.4856381825 Y2.0586938051 Z0.4029773709 F31.7400422878
G01 X10.6164509651 Y2.0327372615 Z0.4029773709 F32.0071528349
G01 X10.7472637478 Y2.0000340659 Z0.4029773709 F32.3612952029
G01 X10.7861546207 Y2.0000340659 Z0.4029773709 F9.3338095117
G01 X10.8380677079 Y2.0000340659 Z0.4029773709 F12.4591409274
G01 X10.9158494539 Y2.0000340659 Z0.4029773709 F18.6676190233
G01 X10.9812558452 Y2.0000340659 Z0.4029773709 F15.6975339180
G01 X11.0331689324 Y2.0000340659 Z0.4029773709 F12.4591409274
G01 X11.0720598053 Y2.0000340659 Z0.4029773709 F9.3338095117
G01 X11.1374661967 Y2.0000340659 Z0.4029773709 F7.8487669590
G01 X11.2540071370 Y1.9903113476 Z0.4029773709 F28.0669939464
G01 X11.3705480774 Y1.9757437301 Z0.4029773709 F28.1874929871
G01 X11.4870890178 Y1.9562982936 Z0.4029773709 F28.3565010040
G01 X11.6036299582 Y1.9317985788 Z0.4029773709 F28.5811956381
G01 X11.6327651933 Y1.9317985788 Z0.4029773709 F6.9924564228
G01 X11.6716560662 Y1.9317985788 Z0.4029773709 F9.3338095117
G01 X11.7299265364 Y1.9317985788 Z0.4029773709 F13.9849128455
G01 X11.7789259659 Y1.9317985788 Z0.4029773709 F11.7598630795
G01 X11.8178168389 Y1.9317985788 Z0.4029773709 F9.3338095117
G01 X11.7886816038 Y1.9317985788 Z0.4029773709 F6.9924564228
G01 X11.7396821743 Y1.9317985788 Z0.4029773709 F5.8799315397
G01 X11.6742757830 Y1.9208851966 Z0.4029773709 F15.9145480999
G01 X11.6088693917 Y1.9045335988 Z0.4029773709 F16.1806476014
G01 X11.5434630003 Y1.8827068343 Z0.4029773709 F16.5485241510
G01 X11.4780566090 Y1.8567502907 Z0.4029773709 F16.8884611279
G01 X11.4126502177 Y1.8240470951 Z0.4029773709 F17.5503764599
G01 X11.3472438264 Y1.7803935661 Z0.4029773709 F18.8726493364
G01 X11.2953307392 Y1.7803935661 Z0.4029773709 F12.4591409274
G01 X11.2516772102 Y1.7803935661 Z0.4029773709 F10.4768469430
G01 X11.2189740146 Y1.7803935661 Z0.4029773709 F7.8487669590
G01 X11.1930174710 Y1.7803935661 Z0.4029773709 F6.2295704637
G01 X11.1493639420 Y1.7803935661 Z0.4029773709 F5.2384234715
G01 X11.0513650830 Y1.7722177672 Z0.4029773709 F23.6014345965
G01 X10.9533662240 Y1.7599679098 Z0.4029773709 F23.7027618078
G01 X10.8553673651 Y1.7436163120 Z0.4029773709 F23.8448800434
G01 X10.7573685061 Y1.7241708755 Z0.4029773709 F23.9782718016
G01 X10.7328687913 Y1.7241708755 Z0.4029773709 F5.8799315397
G01 X10.6939779183 Y1.7241708755 Z0.4029773709 F9.3338095117
G01 X10.6612747227 Y1.7241708755 Z0.4029773709 F7.8487669590
G01 X10.6122752932 Y1.7241708755 Z0.4029773709 F11.7598630795
G01 X10.5733844202 Y1.7241708755 Z0.4029773709 F9.3338095117
G01 X10.5406812246 Y1.7241708755 Z0.4029773709 F7.8487669590
G01 X10.4916817951 Y1.7241708755 Z0.4029773709 F5.8799315397
G01 X10.4657252515 Y1.7111926037 Z0.4029773709 F6.9648715137
G01 X10.4397687079 Y1.6917471672 Z0.4029773709 F7.7838003676
G01 X10.4138121643 Y1.6917471672 Z0.4029773709 F6.2295704637
G01 X10.3749212913 Y1.6917471672 Z0.4029773709 F9.3338095117
G01 X10.3230082041 Y1.6917471672 Z0.4029773709 F12.4591409274
G01 X10.2452264582 Y1.6917471672 Z0.4029773709 F18.6676190233
G01 X10.1933133710 Y1.6917471672 Z0.4029773709 F12.4591409274
G01 X10.1155316250 Y1.6917471672 Z0.4029773709 F18.6676190233
G01 X10.0117054506 Y1.6917471672 Z0.4029773709 F24.9182818548
G01 X9.7002269275 Y1.6528123518 Z0.4029773709 F25.1122013698
G01 X9.5446634356 Y1.6418989696 Z0.4029773709 F37.4269992134
G01 X9.3890999437 Y1.6255473718 Z0.4029773709 F37.5409214817
G01 X9.2335364519 Y1.6037206073 Z0.4029773709 F37.7009427000
G01 X9.0779729600 Y1.5777640637 Z0.4029773709 F37.8513876649
G01 X8.7668459763 Y1.5123576724 Z0.4029773709 F38.1513190175
G01 X8.6200135923 Y1.5001078150 Z0.4029773709 F35.3621964804
G01 X8.4731812084 Y1.4817537670 Z0.4029773709 F35.5140157582
G01 X8.3263488244 Y1.4572540523 Z0.4029773709 F35.7269525163
G01 X8.1795164405 Y1.4281188172 Z0.4029773709 F35.9268143316
G01 X7.8858516725 Y1.3547026252 Z0.4029773709 F36.3243256994
G01 X7.7550388899 Y1.3465268263 Z0.4029773709 F31.4563265633
G01 X7.6242261072 Y1.3342769689 Z0.4029773709 F31.5324227290
G01 X7.4934133246 Y1.3179253711 Z0.4029773709 F31.6393911150
G01 X7.3626005419 Y1.2995713231 Z0.4029773709 F31.7025875681
G01 X7.2317877593 Y1.2801258866 Z0.4029773709 F31.7400422878
G01 X7.1009749766 Y1.2556261719 Z0.4029773709 F31.9409436201
G01 X7.0682717810 Y1.2556261719 Z0.4029773709 F7.8487669590
G01 X7.0315636850 Y1.2556261719 Z0.4029773709 F8.8099430375
G01 X6.9926728120 Y1.2556261719 Z0.4029773709 F9.3338095117
G01 X6.9490192831 Y1.2556261719 Z0.4029773709 F10.4768469430
G01 X6.8510204241 Y1.2556261719 Z0.4029773709 F11.7598630795
G01 X6.7856140328 Y1.2556261719 Z0.4029773709 F7.8487669590
G01 X6.7467231598 Y1.2556261719 Z0.4029773709 F9.3338095117
G01 X6.7030696309 Y1.2556261719 Z0.4029773709 F10.4768469430
G01 X6.6050707719 Y1.2556261719 Z0.4029773709 F11.7598630795
G01 X6.5396643806 Y1.2556261719 Z0.4029773709 F7.8487669590
G01 X6.5007735076 Y1.2556261719 Z0.4029773709 F9.3338095117
G01 X6.4571199787 Y1.2556261719 Z0.4029773709 F10.4768469430
G01 X6.3591211197 Y1.2556261719 Z0.4029773709 F11.7598630795
G01 X6.2937147283 Y1.2556261719 Z0.4029773709 F7.8487669590
G01 X6.2548238554 Y1.2556261719 Z0.4029773709 F9.3338095117
G01 X6.2111703264 Y1.2556261719 Z0.4029773709 F10.4768469430
G01 X6.1131714675 Y1.2556261719 Z0.4029773709 F11.7598630795
G01 X6.0477650761 Y1.2556261719 Z0.4029773709 F7.8487669590
G01 X6.0088742032 Y1.2556261719 Z0.4029773709 F9.3338095117
G01 X5.9652206742 Y1.2556261719 Z0.4029773709 F10.4768469430
G01 X5.8672218152 Y1.2066267424 Z0.4356805666 F13.7211063786
G01 X5.8345186196 Y1.1821270276 Z0.4520321644 F10.5630262417
G01 X5.8018154239 Y1.1657754298 Z0.4520321644 F8.7751882300
G01 X5.7606119793 Y1.1494238319 Z0.4520321644 F10.6390638377
G01 X5.7169584504 Y1.1330722341 Z0.4520321644 F11.1877212855
G01 X5.6189595914 Y1.1003690384 Z0.4520321644 F12.3973854236
G01 X5.5535532001 Y1.0676658428 Z0.4520321644 F8.7751882300
G01 X5.5123497554 Y1.0513142450 Z0.4520321644 F10.6390638377
G01 X5.4686962265 Y1.0349626471 Z0.4520321644 F11.1877212855
G01 X5.3706973675 Y0.9859632176 Z0.4847353600 F13.7211063786
G01 X5.3379941718 Y0.9614635029 Z0.5010869579 F10.5630262417
G01 X5.3052909762 Y0.9451119050 Z0.5010869579 F8.7751882300
G01 X5.2640875316 Y0.9287603072 Z0.5010869579 F10.6390638377
G01 X5.2204340026 Y0.9124087094 Z0.5010869579 F11.1877212855
G01 X5.1224351436 Y0.8797055137 Z0.5010869579 F12.3973854236
G01 X5.0570287523 Y0.8470023181 Z0.5010869579 F8.7751882300
G01 X5.0158253077 Y0.8306507202 Z0.5010869579 F10.6390638377
G01 X4.9721717788 Y0.8142991224 Z0.5010869579 F11.1877212855
G01 X4.8986726345 Y0.7775495503 Z0.5256143546 F6.8605531893
G01 X4.8251734903 Y0.7407999781 Z0.5501417514 F6.8605531893
G01 X4.7924702946 Y0.7163002634 Z0.5664933492 F5.2815131209
G01 X4.7597670990 Y0.6918005487 Z0.5828449470 F5.2815131209
G01 X4.7270639033 Y0.6673008339 Z0.5991965449 F5.2815131209
G01 X4.7076184668 Y0.6591250350 Z0.5991965449 F5.0626274229
G01 X4.6857917024 Y0.6509492361 Z0.5991965449 F5.5938606427
G01 X4.6612919876 Y0.6427734372 Z0.5991965449 F6.1986927118
G01 X4.5877928434 Y0.6182460404 Z0.5991965449 F6.1986927118
G01 X4.5550896477 Y0.6018944426 Z0.5991965449 F4.3875941150
G01 X4.5223864520 Y0.5855428447 Z0.5991965449 F4.3875941150
G01 X4.5029410155 Y0.5773670458 Z0.5991965449 F5.0626274229
G01 X4.4811142511 Y0.5691912469 Z0.5991965449 F5.5938606427
G01 X4.4444061551 Y0.5446915322 Z0.5991965449 F5.2959581578
G01 X4.4199064403 Y0.5263374842 Z0.6114464022 F7.9133284856
G01 X4.3954067256 Y0.5079834362 Z0.6236962596 F7.9133284856
G01 X4.3662714905 Y0.4896293882 Z0.6359461170 F8.7716372265
G01 X4.3335682948 Y0.4712753402 Z0.6481959744 F9.4683850569
G01 X4.2601521029 Y0.4345672442 Z0.6726956891 F10.2792153948
G01 X4.2111526734 Y0.3978591482 Z0.6971954039 F7.9133284856
G01 X4.1820174383 Y0.3795051002 Z0.7094452612 F8.7716372265
G01 X4.1493142426 Y0.3611510522 Z0.7216951186 F9.4683850569
G01 X4.0758980506 Y0.3244429562 Z0.7461948334 F10.2792153948
G01 X4.0513983359 Y0.3060889082 Z0.7584446907 F7.9133284856
G01 X4.0268986211 Y0.2877348602 Z0.7706945481 F7.9133284856
G01 X3.9977633860 Y0.2693808122 Z0.7829444055 F8.7716372265
G01 X3.9650601904 Y0.2510267642 Z0.7951942629 F9.4683850569
G01 X3.8916439984 Y0.2143186683 Z0.8196939776 F10.2792153948
G01 X3.8426445689 Y0.1776105723 Z0.7951942629 F7.9133284856
G01 X3.8135093338 Y0.1959646203 Z0.7829444055 F8.7716372265
G01 X3.7808061381 Y0.2143186683 Z0.7706945481 F9.4683850569
G01 X3.7153258447 Y0.2470588150 Z0.7488431218 F6.1120580421
G01 X3.6498455513 Y0.2797989617 Z0.7269916955 F6.1120580421
G01 X3.6207103163 Y0.3016257261 Z0.7124240779 F4.7052932692
G01 X3.5915750812 Y0.3234524906 Z0.6978564604 F4.7052932692
G01 X3.5624398461 Y0.3452792550 Z0.6832888428 F4.7052932692
G01 X3.5429944096 Y0.3525630638 Z0.6832888428 F4.9835632761
G01 X3.5246403616 Y0.3598468726 Z0.6832888428 F4.7391641676
G01 X3.5028135971 Y0.3671306814 Z0.6832888428 F5.5224073911
G01 X3.4373333037 Y0.3889821077 Z0.6832888428 F5.5224073911
G01 X3.4081980686 Y0.4035497252 Z0.6832888428 F3.9089019728
G01 X3.3790628335 Y0.4181173428 Z0.6832888428 F3.9089019728
G01 X3.3499275984 Y0.4326849603 Z0.6832888428 F3.9089019728
G01 X3.3304821620 Y0.4435983426 Z0.6832888428 F5.3516605009
G01 X3.3121281140 Y0.4545117248 Z0.6832888428 F5.1248457731
G01 X3.2957765161 Y0.4654251070 Z0.6832888428 F4.7181623341
G01 X3.2794249183 Y0.4763384893 Z0.6832888428 F4.7181623341
G01 X3.2534683747 Y0.4926900871 Z0.6723754606 F7.8146403611
G01 X3.2243331396 Y0.5090416849 Z0.6614620784 F8.4353721101
G01 X3.1589267483 Y0.5308684494 Z0.6614620784 F8.2742620755
G01 X3.1152732194 Y0.5526952139 Z0.6614620784 F5.8567354886
G01 X3.0893166758 Y0.5636085961 Z0.6614620784 F6.7577968510
G01 X3.0601814407 Y0.5745219783 Z0.6614620784 F7.4669081246
G01 X2.9947750493 Y0.6072251740 Z0.6396353139 F9.1577398187
G01 X2.9729482849 Y0.6235767718 Z0.6287219317 F7.0499742040
G01 X2.9511215204 Y0.6399283696 Z0.6178085494 F7.0499742040
G01 X2.9251649768 Y0.6562799675 Z0.6068951672 F7.8146403611
G01 X2.8960297417 Y0.6726315653 Z0.5959817850 F8.4353721101
G01 X2.8306233504 Y0.7053347610 Z0.5741550205 F9.1577398187
G01 X2.7869698215 Y0.7380379566 Z0.5523282560 F7.0499742040
G01 X2.7610132779 Y0.7543895545 Z0.5414148738 F7.8146403611
G01 X2.7318780428 Y0.7707411523 Z0.5305014916 F8.4353721101
G01 X2.5848797543 Y0.8197959458 Z0.4937519194 F12.7412151724
G01 X2.4378814658 Y0.8688507393 Z0.4570023473 F12.7412151724
G01 X2.3724750745 Y0.9015539349 Z0.4325026326 F9.2545841181
G01 X2.3070686831 Y0.9342571306 Z0.4080029178 F9.2545841181
G01 X2.2416622918 Y0.9669603263 Z0.3835032031 F9.2545841181
G01 X2.2027714188 Y0.9833119241 Z0.3712533457 F10.5434427215
G01 X2.1591178899 Y0.9996635219 Z0.3590034883 F11.5675626771
G01 X2.1101184604 Y1.0160151198 Z0.3467536310 F12.7412151724
G01 X1.9631201719 Y1.0650699133 Z0.3100040588 F12.7412151724
G01 X1.8977137806 Y1.0977731089 Z0.2855043441 F9.2545841181
G01 X1.8323073893 Y1.1304763046 Z0.2610046293 F9.2545841181
G01 X1.7934165163 Y1.1468279024 Z0.2487547720 F10.5434427215
G01 X1.7497629874 Y1.1631795002 Z0.2365049146 F11.5675626771
G01 X1.6763467954 Y1.2214499704 Z0.1997968186 F12.0794584825
G01 X1.6518470806 Y1.2398040184 Z0.2120466760 F7.9133284856
G01 X1.6273473659 Y1.2581580664 Z0.2242965333 F7.9133284856
G01 X1.5982121308 Y1.2765121144 Z0.2365463907 F8.7716372265
G01 X1.5655089351 Y1.2948661624 Z0.2487962481 F9.4683850569
G01 X1.4920927432 Y1.3315742584 Z0.2732959628 F10.2792153948
G01 X1.4430933137 Y1.3682823544 Z0.2977956776 F7.9133284856
G01 X1.4139580786 Y1.3866364024 Z0.3100455350 F8.7716372265
G01 X1.3812548829 Y1.4049904504 Z0.3222953923 F9.4683850569
G01 X1.3078386909 Y1.4416985464 Z0.3467951071 F10.2792153948
G01 X1.2833389762 Y1.4600525944 Z0.3590449645 F7.9133284856
G01 X1.2588392614 Y1.4784066424 Z0.3712948218 F7.9133284856
G01 X1.2297040263 Y1.4967606904 Z0.3835446792 F8.7716372265
G01 X1.1970008307 Y1.5151147383 Z0.3957945366 F9.4683850569
G01 X1.1235846387 Y1.5518228343 Z0.4202942513 F10.2792153948
G01 X1.0745852092 Y1.5885309303 Z0.4447939661 F7.9133284856
G01 X1.0454499741 Y1.6068849783 Z0.4570438235 F8.7716372265
G01 X1.0127467784 Y1.6252390263 Z0.4692936808 F9.4683850569
G01 X0.8817861916 Y1.6907193197 Z0.5129965335 F12.2241160842
G01 X0.7508256049 Y1.7561996131 Z0.5566993861 F12.2241160842
G01 X0.6925551347 Y1.7998531420 Z0.5858346212 F9.4105865384
G01 X0.6342846645 Y1.8435066710 Z0.6149698563 F9.4105865384
G01 X0.5760141943 Y1.8871601999 Z0.6441050914 F9.4105865384
G01 X0.5371233213 Y1.9089869644 Z0.6586727089 F11.2598708773
G01 X0.5004152253 Y1.9308137288 Z0.6732403265 F10.8295793315
G01 X0.4567616964 Y1.9526404933 Z0.6878079440 F12.2241160842
G01 X0.3258011096 Y2.0181207867 Z0.7315107967 F12.2241160842
G01 X0.2675306394 Y2.0617743156 Z0.7606460318 F9.4105865384
G01 X0.2092601692 Y2.1054278445 Z0.7897812669 F9.4105865384
G01 X0.1509896991 Y2.1490813735 Z0.8189165020 F9.4105865384
G01 X0.1898805720 Y2.1654329713 Z0.8066666446 F10.5434427215
G01 X0.2265886680 Y2.1817845691 Z0.7944167872 F10.0826227117
G01 X0.2592918637 Y2.1981361670 Z0.7821669298 F9.2545841181
G01 X0.2837915784 Y2.2144877648 Z0.7699170725 F7.6562248748
G01 X0.3097481220 Y2.2308393626 Z0.7576672151 F7.9279084622
G01 X0.3388833571 Y2.2471909605 Z0.7454173577 F8.5404116556
G01 X0.4042897484 Y2.2798941561 Z0.7209176430 F9.2545841181
G01 X0.4532891779 Y2.3125973518 Z0.6964179282 F7.6562248748
G01 X0.4792457215 Y2.3289489496 Z0.6841680709 F7.9279084622
G01 X0.5083809566 Y2.3453005474 Z0.6719182135 F8.5404116556
G01 X0.5737873480 Y2.3780037431 Z0.6474184987 F9.2545841181
G01 X0.5982870627 Y2.3943553409 Z0.6351686414 F7.6562248748
G01 X0.6227867775 Y2.4107069388 Z0.6229187840 F7.6562248748
G01 X0.6487433210 Y2.4270585366 Z0.6106689266 F7.9279084622
G01 X0.6778785561 Y2.4434101344 Z0.5984190692 F8.5404116556
G01 X0.7432849475 Y2.4761133301 Z0.5739193545 F9.2545841181
G01 X0.7922843770 Y2.5088165258 Z0.5494196397 F7.6562248748
G01 X0.8182409206 Y2.5251681236 Z0.5371697824 F7.9279084622
G01 X0.8473761557 Y2.5415197214 Z0.5249199250 F8.5404116556
G01 X1.1413727326 Y2.7377388954 Z0.3779216365 F30.6248994993
G01 X1.4353693096 Y2.9339580694 Z0.2309233480 F30.6248994993
G01 X1.5661820923 Y3.0319569284 Z0.1655169567 F21.1260524834
G01 X1.6969948749 Y3.1299557874 Z0.2309233480 F21.1260524834
G01 X1.8278076576 Y3.2279546464 Z0.2963297393 F21.1260524834
G01 X1.9055894035 Y3.2668455193 Z0.3126813372 F21.2367790800
G01 X1.9928964614 Y3.3104990483 Z0.3290329350 F23.7533659726
G01 X2.0908953204 Y3.3594984777 Z0.3453845328 F26.5870773860
G01 X2.3848918974 Y3.5064967662 Z0.3944393263 F26.5870773860
G01 X2.5157046800 Y3.5719031576 Z0.4271425220 F17.9837843509
G01 X2.6465174627 Y3.6373095489 Z0.4598457176 F17.9837843509
G01 X2.7242992086 Y3.6762004219 Z0.4761973155 F21.2367790800
G01 X2.8116062664 Y3.7198539508 Z0.4925489133 F23.7533659726
G01 X2.9584386504 Y3.7932701428 Z0.5292570093 F20.1861154188
G01 X3.0074380799 Y3.8177698575 Z0.5476110573 F13.8662088777
G01 X3.0564375094 Y3.8422695723 Z0.5659651053 F13.8662088777
G01 X3.1147079796 Y3.8714048074 Z0.5843191533 F16.2442607774
G01 X3.1801143709 Y3.9041080030 Z0.6026732013 F18.0947364713
G01 X3.3269467549 Y3.9775241950 Z0.6393812973 F20.1861154188
G01 X3.4249456139 Y4.0265236245 Z0.6760893932 F13.8662088777
G01 X3.4832160841 Y4.0556588596 Z0.6944434412 F16.2442607774
G01 X3.5486224754 Y4.0883620553 Z0.7127974892 F18.0947364713
G01 X3.6954548593 Y4.1617782472 Z0.7495055852 F20.1861154188
G01 X3.7444542888 Y4.1862779620 Z0.7678596332 F13.8662088777
G01 X3.7934537183 Y4.2107776767 Z0.7862136812 F13.8662088777
G01 X3.8517241885 Y4.2399129118 Z0.8045677292 F16.2442607774
G01 X3.9171305799 Y4.2726161075 Z0.7862136812 F18.0947364713
G01 X4.0639629638 Y4.3460322995 Z0.7495055852 F20.1861154188
G01 X4.1619618228 Y4.3950317290 Z0.7127974892 F13.8662088777
G01 X4.2202322930 Y4.4241669641 Z0.6944434412 F16.2442607774
G01 X4.2856386843 Y4.4568701597 Z0.6760893932 F18.0947364713
G01 X4.5475598579 Y4.5878307465 Z0.6106090999 F24.0054720804
G01 X4.8094810315 Y4.7187913333 Z0.5451288065 F24.0054720804
G01 X4.9260219718 Y4.7770618035 Z0.5014752775 F16.4897942555
G01 X5.0425629122 Y4.8353322737 Z0.4578217486 F16.4897942555
G01 X5.1008333824 Y4.8644675088 Z0.4359949841 F16.4897942555
G01 X5.1662397737 Y4.8971707044 Z0.4141682197 F18.3154796375
G01 X5.3864883497 Y5.0072949924 Z0.3486879263 F20.3842233624
G01 X5.6198335875 Y5.1239676113 Z0.2832076329 F21.5183893558
G01 X5.7666659714 Y5.1973838033 Z0.2395541040 F20.3842233624
G01 X5.8400821634 Y5.2340918993 Z0.2177273395 F20.3842233624
G01 X5.8983526336 Y5.2632271344 Z0.1959005750 F16.4897942555
G01 X6.0148935740 Y5.3214976046 Z0.2395541040 F16.4897942555
G01 X6.1457063566 Y5.3869039959 Z0.2722572996 F17.9837843509
G01 X6.1947057861 Y5.4114037106 Z0.2886088975 F13.7211063786
G01 X6.2437052156 Y5.4359034254 Z0.3049604953 F13.7211063786
G01 X6.2956183028 Y5.4618599690 Z0.3213120931 F14.4719911037
G01 X6.3538887730 Y5.4909952041 Z0.3376636909 F16.1205775274
G01 X6.4847015557 Y5.5564015954 Z0.3703668866 F17.9837843509
G01 X6.5827004147 Y5.6054010249 Z0.4030700823 F13.7211063786
G01 X6.6346135019 Y5.6313575685 Z0.4194216801 F14.4719911037
G01 X6.6928839720 Y5.6604928036 Z0.4357732779 F16.1205775274
G01 X6.8236967547 Y5.7258991949 Z0.4684764736 F17.9837843509
G01 X6.8726961842 Y5.7503989097 Z0.4848280714 F13.7211063786
G01 X6.9216956137 Y5.7748986244 Z0.5011796693 F13.7211063786
G01 X6.9736087009 Y5.8008551680 Z0.5175312671 F14.4719911037
G01 X7.0318791711 Y5.7717199329 Z0.5338828649 F16.1205775274
G01 X7.1626919537 Y5.7063135416 Z0.5665860606 F17.9837843509
G01 X7.2606908127 Y5.6573141121 Z0.5992892562 F13.7211063786
G01 X7.3126038999 Y5.6313575685 Z0.6156408541 F14.4719911037
G01 X7.3708743701 Y5.6022223334 Z0.6319924519 F16.1205775274
G01 X7.5016871528 Y5.5368159421 Z0.6839055391 F18.6231915108
G01 X7.5343903484 Y5.5108593985 Z0.7033509756 F11.0539898199
G01 X7.5670935441 Y5.4849028549 Z0.7227964121 F11.0539898199
G01 X7.6190066313 Y5.4589463113 Z0.7422418486 F14.6907365646
G01 X7.6772771015 Y5.4329897677 Z0.7616872850 F16.0051658992
G01 X7.8080898841 Y5.3675833764 Z0.8136003722 F18.6231915108
G01 X7.8858716301 Y5.3156702892 Z0.7747094993 F12.1534994204
G01 X7.9441421002 Y5.2897137456 Z0.7552640628 F16.0051658992
G01 X8.0095484916 Y5.2637572020 Z0.7358186263 F17.5214188715
G01 X8.1260894320 Y5.2248663290 Z0.7066833912 F15.1519437368
G01 X8.1552246670 Y5.2054208925 Z0.6921157737 F9.1048370952
G01 X8.1843599021 Y5.1859754560 Z0.6775481561 F9.1048370952
G01 X8.2333593316 Y5.1665300195 Z0.6629805386 F13.1262329460
G01 X8.2852724188 Y5.1470845831 Z0.6484129210 F13.7562278389
G01 X8.4018133592 Y5.1081937101 Z0.6192776859 F15.1519437368
G01 X8.4795951051 Y5.0693028371 Z0.5901424508 F11.0056172796
G01 X8.5285945346 Y5.0498574006 Z0.5755748333 F13.1262329460
G01 X8.5805076218 Y5.0304119642 Z0.5610072157 F13.7562278389
G01 X8.6786172088 Y4.9649316708 Z0.5119524222 F10.2198340954
G01 X8.7113204045 Y4.9431049063 Z0.4956008244 F10.2198340954
G01 X8.7549739334 Y4.9212781418 Z0.4792492266 F12.3533877146
G01 X8.8039733629 Y4.8994513774 Z0.4628976287 F13.4586866301
G01 X8.9077995373 Y4.8340449861 Z0.4192440998 F15.6292807222
G01 X8.9732059286 Y4.7903914571 Z0.3865409042 F10.2198340954
G01 X9.0222053581 Y4.7685646927 Z0.3701893063 F13.4586866301
G01 X9.0741184453 Y4.7467379282 Z0.3538377085 F14.0738075449
G01 X9.1721173043 Y4.6813315369 Z0.3211345128 F14.6730469950
G01 X9.2048205000 Y4.6649799390 Z0.3088846555 F9.2545841181
G01 X9.2375236957 Y4.6486283412 Z0.2966347981 F9.2545841181
G01 X9.2764145686 Y4.6322767434 Z0.2843849407 F10.5434427215
G01 X9.3200680975 Y4.6159251455 Z0.2721350833 F11.5675626771
G01 X9.4180669565 Y4.5505187542 Z0.2394318877 F14.6730469950
G01 X9.4834733479 Y4.5178155586 Z0.2149321729 F9.2545841181
G01 X9.5223642208 Y4.5014639607 Z0.2026823155 F10.5434427215
G01 X9.5660177498 Y4.4851123629 Z0.1904324582 F11.5675626771
G01 X9.6437994957 Y4.4462214899 Z0.2163890018 F10.8904493498
G01 X9.6697560393 Y4.4267760534 Z0.2293672736 F8.3838794840
G01 X9.6957125829 Y4.4073306170 Z0.2423455454 F8.3838794840
G01 X9.7216691265 Y4.3878851805 Z0.2553238172 F8.3838794840
G01 X9.7605599995 Y4.3684397440 Z0.2683020890 F10.8904493498
G01 X9.8643861738 Y4.2906579981 Z0.3202151762 F16.7677589681
G01 X9.9421679198 Y4.2387449109 Z0.3591060491 F12.1534994204
G01 X10.0199496657 Y4.1998540379 Z0.3850625927 F10.8904493498
G01 X10.1366222846 Y4.1219844071 Z0.4341173862 F11.8881593973
G01 X10.1755131576 Y4.0960278635 Z0.4504689841 F11.8881593973
G01 X10.2532949035 Y4.0441147763 Z0.4831721797 F11.8881593973
G01 X10.3842554903 Y3.9339904883 Z0.5382343237 F14.3799580066
G01 X10.5152160771 Y3.8238662004 Z0.5932964677 F14.3799580066
G01 X10.5806224684 Y3.7911630047 Z0.6177961824 F9.2545841181
G01 X10.6051221832 Y3.7748114069 Z0.6300460398 F7.6562248748
G01 X10.6296218979 Y3.7584598090 Z0.6422958972 F7.6562248748
G01 X10.6555784415 Y3.7421082112 Z0.6545457546 F7.9279084622
G01 X10.6847136766 Y3.7257566134 Z0.6667956119 F8.5404116556
G01 X10.7501200679 Y3.6930534177 Z0.6912953267 F9.2545841181
G01 X10.7991194974 Y3.6603502221 Z0.7157950414 F7.6562248748
G01 X10.8250760410 Y3.6439986242 Z0.7280448988 F7.9279084622
G01 X10.8542112761 Y3.6276470264 Z0.7402947562 F8.5404116556
G01 X10.9196176674 Y3.5949438307 Z0.7647944709 F9.2545841181
G01 X10.9686170969 Y3.5785922329 Z0.7770443283 F12.7412151724
G01 X11.0176165264 Y3.5622406351 Z0.7892941857 F12.7412151724
G01 X11.0695296136 Y3.5458890372 Z0.8015440431 F13.3893381864
G01 X11.1278000838 Y3.5295374394 Z0.7892941857 F14.8196481645
G01 X11.2586128665 Y3.4968342437 Z0.7647944709 F16.4455694803
G01 X11.4546105845 Y3.4641310481 Z0.7402947562 F24.0254386643
G01 X11.5584367589 Y3.4477794503 Z0.7280448988 F25.3961602416
G01 X11.6749776992 Y3.4314278524 Z0.7157950414 F28.3963964899
G01 X11.9366032645 Y3.3006150698 Z0.6638819542 F35.6492693291
G01 X11.8711968732 Y3.2746585262 Z0.6444365177 F17.5214188715
G01 X11.8057904819 Y3.2487019826 Z0.6249910813 F17.5214188715
G01 X11.7019643075 Y3.2227454390 Z0.6055456448 F26.1057142932
G01 X11.5854233671 Y3.1967888954 Z0.5861002083 F29.0327177052
G01 X11.3237978018 Y3.0659761127 Z0.5341871211 F35.6492693291
G01 X11.1682343099 Y3.0140630255 Z0.4952962481 F20.2254183680
G01 X11.0516933696 Y2.9881064819 Z0.4758508117 F29.0327177052
G01 X10.9208805869 Y2.9621499383 Z0.4564053752 F32.3455998954
G01 X10.6877987062 Y2.8456089980 Z0.4175145022 F31.6175415946
G01 X10.6295282360 Y2.8261635615 Z0.4029468847 F15.1519437368
G01 X10.5712577658 Y2.8067181250 Z0.3883792671 F15.1519437368
G01 X10.4732589068 Y2.7872726885 Z0.3738116496 F24.2318206146
G01 X10.3694327324 Y2.7678272520 Z0.3592440320 F25.5914904275
G01 X10.1363508516 Y2.7289363791 Z0.3301087969 F28.5712226006
G01 X9.9807873598 Y2.6900455061 Z0.3009735618 F19.5571882362
G01 X9.8827885008 Y2.6706000696 Z0.2864059443 F24.2318206146
G01 X9.7789623264 Y2.6511546331 Z0.2718383267 F25.5914904275
G01 X9.5827431524 Y2.5856743397 Z0.2227835332 F17.0074818027
G01 X9.5173367611 Y2.5638475753 Z0.2064319354 F17.0074818027
G01 X9.4300297032 Y2.5420208108 Z0.1900803376 F21.9522015668
G01 X9.3320308442 Y2.5201940463 Z0.2064319354 F24.4135082434
G01 X9.1243784954 Y2.3893812637 Z0.2500854643 F29.9127802481
G01 X8.9935657128 Y2.3457277348 Z0.2827886600 F17.0074818027
G01 X8.8955668538 Y2.3239009703 Z0.2991402578 F24.4135082434
G01 X8.7917406794 Y2.3020742058 Z0.3154918557 F25.7635913016
G01 X8.5957429614 Y2.1712614232 Z0.3481950513 F28.5480450363
G01 X8.5303365701 Y2.1549098254 Z0.3604449087 F16.4455694803
G01 X8.4649301788 Y2.1385582275 Z0.3726947661 F16.4455694803
G01 X8.3871484328 Y2.1222066297 Z0.3849446234 F19.3008855865
G01 X8.2998413750 Y2.1058550319 Z0.3971944808 F21.5197925615
G01 X8.1038436570 Y1.9750422492 Z0.4298976765 F28.5480450363
G01 X7.9730308743 Y1.9423390535 Z0.4543973912 F16.4455694803
G01 X7.8952491284 Y1.9259874557 Z0.4666472486 F19.3008855865
G01 X7.8079420705 Y1.9096358579 Z0.4788971060 F21.5197925615
G01 X7.6523785787 Y1.8707449849 Z0.5048536496 F19.4926110883
G01 X7.6004654915 Y1.8512995484 Z0.5178319214 F13.6642628667
G01 X7.5485524043 Y1.8318541120 Z0.5308101932 F13.6642628667
G01 X7.4966393171 Y1.8124086755 Z0.5437884650 F13.6642628667
G01 X7.4188575711 Y1.7929632390 Z0.5567667368 F19.4926110883
G01 X7.2112052224 Y1.6373997471 Z0.6605929112 F33.5355179361
G01 X7.1073790480 Y1.5985088742 Z0.6865494548 F13.6642628667
G01 X7.0035528736 Y1.5596180012 Z0.7125059984 F13.6642628667
G01 X6.7702076358 Y1.4429453823 Z0.7779862918 F21.5183893558
G01 X6.6924258898 Y1.4040545093 Z0.7998130562 F21.5183893558
G01 X6.5368623980 Y1.3262727634 Z0.8434665852 F21.5183893558
G01 X6.3166138220 Y1.2161484754 Z0.7699674409 F20.5584307897
G01 X6.2431976301 Y1.1794403794 Z0.7454677262 F20.5584307897
G01 X6.0963652461 Y1.1060241875 Z0.6964682967 F20.5584307897
G01 X5.9655524635 Y1.0406177961 Z0.6637651010 F17.9837843509
G01 X5.9165530340 Y1.0161180814 Z0.6474135032 F13.7211063786
G01 X5.8675536045 Y0.9916183666 Z0.6310619053 F13.7211063786
G01 X5.8156405173 Y0.9656618230 Z0.6147103075 F14.4719911037
G01 X5.7573700471 Y0.9365265879 Z0.5983587097 F16.1205775274
G01 X5.6265572644 Y0.8711201966 Z0.5656555140 F17.9837843509
G01 X5.4305595464 Y0.7731213376 Z0.5329523184 F26.5870773860
G01 X5.3267333720 Y0.7212082504 Z0.5166007205 F28.1345294778
G01 X5.2101924317 Y0.6629377802 Z0.5002491227 F31.5164992057
G01 X4.9485668664 Y0.5321249976 Z0.4675459270 F35.3194513156
G01 X4.7525691484 Y0.4341261386 Z0.4511943292 F52.7379216375
G01 X4.5565714304 Y0.3361272796 Z0.4348427314 F52.7379216375
G01 X4.3489190816 Y0.2323011052 Z0.4184911335 F55.8570016978
G01 X4.1158372008 Y0.1157601648 Z0.4021395357 F62.6654333077
G01 X3.8542116355 Y0.2465729475 Z0.3694363400 F35.3194513156
G01 X3.4622161995 Y0.4425706655 Z0.3367331444 F52.7379216375
G01 X3.2545638508 Y0.5463968399 Z0.3203815465 F55.8570016978
G01 X3.0214819700 Y0.6629377802 Z0.3040299487 F62.6654333077
G01 X2.4982308394 Y0.9245633455 Z0.3040299487 F70.2015058397
G01 X2.4002319804 Y0.9245633455 Z0.3040299487 F11.7598630795
G01 X2.3483188932 Y0.9245633455 Z0.3040299487 F12.4591409274
G01 X2.2900484230 Y0.9245633455 Z0.3040299487 F13.9849128455
G01 X2.1592356404 Y0.9245633455 Z0.3040299487 F15.6975339180
G01 X2.0612367814 Y0.9245633455 Z0.3040299487 F11.7598630795
G01 X2.0093236942 Y0.9245633455 Z0.3040299487 F12.4591409274
G01 X1.9510532240 Y0.9245633455 Z0.3040299487 F13.9849128455
G01 X1.8202404413 Y0.9245633455 Z0.3040299487 F15.6975339180
G01 X1.7222415823 Y0.9245633455 Z0.3040299487 F11.7598630795
G01 X1.6703284951 Y0.9245633455 Z0.3040299487 F12.4591409274
G01 X1.6120580249 Y0.9245633455 Z0.3040299487 F13.9849128455
G01 X1.4812452423 Y0.9245633455 Z0.3040299487 F15.6975339180
G01 X1.3832463833 Y0.9245633455 Z0.3040299487 F11.7598630795
G01 X1.3313332961 Y0.9245633455 Z0.3040299487 F12.4591409274
G01 X1.2730628259 Y0.9245633455 Z0.3040299487 F13.9849128455
G01 X1.1422500433 Y0.9245633455 Z0.3040299487 F15.6975339180
G01 X1.0442511843 Y0.9245633455 Z0.3040299487 F11.7598630795
G01 X0.9923380971 Y0.9245633455 Z0.3040299487 F12.4591409274
G01 X0.9340676269 Y0.9245633455 Z0.3040299487 F13.9849128455
G01 X0.8032548442 Y0.9245633455 Z0.3040299487 F15.6975339180
G01 X0.7052559852 Y0.9245633455 Z0.3040299487 F11.7598630795
G01 X0.6533428980 Y0.9245633455 Z0.3040299487 F12.4591409274
G01 X0.5950724279 Y0.9245633455 Z0.3040299487 F13.9849128455
G01 X0.4642596452 Y0.9245633455 Z0.3040299487 F15.6975339180
G01 X0.3662607862 Y0.9245633455 Z0.3040299487 F11.7598630795
G01 X0.3143476990 Y0.9245633455 Z0.3040299487 F12.4591409274
G01 X0.2560772288 Y0.9245633455 Z0.3040299487 F13.9849128455
G01 X-0.1363611191 Y0.9245633455 Z0.3040299487 F15.6975339180
